X:1
T:Ein veste Burg ist unser Gott
T:Hans Leo Hassler
T:Ein veste Burg ist unser Gott
C:Hans Leo Hassler
%%score [ 1 2 3 4 ]
L:1/8
Q:1/4=240
M:4/2
K:F
V:1 treble nm="Soprano" snm="S"
V:2 treble nm="Alto" snm="A"
V:3 treble-8 nm="Tenor" snm="T"
V:4 bass nm="Bass" snm="B"
V:1
 z16 | z4 f4 f4 f4 | c6 d2 e4 f4- | f4 e4 d4 d4 | c8 z4 f4- | f4 e8 d4 | c8 d4 B4- | B4 A4 G8 | %8
w: |Ein ve- ste|Burg _ ist un-|* * * ser|Gott ein|_ gu- te|Wehr und Waf-||
 F4 A4 c4 F4 | G4 A4 B6 c2 | d2 c2 c2 BA B2 A2 G4 | A4 c4 A2 B2 c2 A2 | B6 A2 G4 c4 | A4 B4 c8- | %14
w: fen, ein gu- te|Wehr und Waf- *||fen, ein gu- * * *|* * * te|Wehr und Waf-|
 c8 A8 | z16 | z16 | z16 | z16 | z8 z4 f4 | e8 d8 | c8 d4 B4- | B4 A4 G8 | F2 G2 A2 B2 c8 | z16 | %25
w: * fen,|||||ein|gu- te|Wehr und Waf-||* * * * fen.||
 f8 f4 f4 | c6 d2 e4 f4- | f4 e4 d4 d4 | c4 f8 e4- | e4 d4 c8 | d4 B8 A4 | G8 F8 | z4 f4 e8 | %33
w: Er hilfft uns|frey _ auß al-|* * * ler|Noth, die uns|_ jetzt hat|be- trof- *|* fen,|die uns|
 d8 c8 | d4 B8 A4 | G8 F4 f4 | e8 d8 | c8 d4 B4- | B2 A2 A2 GF G8 | F16 | z8 z4 G4 | A6 B2 c4 d4- | %42
w: jetzt hat|be- trof- *|* fen, die|uns jetzt|hat be- trof-||fen.|Der|al- * * te|
 d4 c8 =B4 | c8 z4 G4 | c4 B2 A2 =B4 c4 | A2 B2 c8 =B4 | c8 z4 F4 | c8 d8 | e8 f8 | z16 | %50
w: _ bö- se|Feind, Der|al- * * * te|bö- * * se|Feind, mit|Ernst ers|jetzt meint,||
 z8 z4 F4- | F4 c4 d4 e4 | f8 z4 e4 | f4 e4 d8 | c8 z4 e4 | f8 e8 | d8 c8 | d4 d8 c4 | %58
w: mit|_ Ernst ers jetzt|meint. Groß|Macht und vil|List, Groß|Macht und|vil List,|sein grau- sam|
 d6 c2 B4 B4 | A4 A4 B6 A2 | G4 G4 F8 | z4 d4 d4 c4 | f4 d4 e8 | z8 d4 d4- | d4 c4 d4 c4 | %65
w: Rü- * * stung|ist, sein grau- sam|Rü- stung ist,|sein grau- sam|Rü- stung ist,|sein grau-|* sam Rü- *|
 B4 B4 A8 | z16 | z8 z4 f4 | e4 d4 c8 | d4 B6 A2 A4- | A2 G2 G6 F2 F4- | F4 E4 F8 | z16 | z16 | %74
w: * stung ist.||Auf|Erd ist nicht|seins Glei- * *||* * chen,|||
 z8 z4 f4 | e8 d8 | c8 d4 B4- | B4 A8 G4- | G2 F2 F8 E4 | F16 |] %80
w: Auf|Erd ist|nicht seins Glei-|||chen.|
V:2
 B8 B4 B4 | F6 G2 A4 B4- | B4 A4 G2 G2 F4 | A4 c8 B4 | A6 B2 c2 B2 A2 GF | G4 c4 G2 E2 A4- | %6
w: Ein ve- ste|Burg _ ist un-|* * * ser Gott|ist un- ser|Gott _ _ _ _ _ _|_ ist un- * *|
 A4 G4 F6 ED | E2 C2 F8 E4 | F8 z4 D4 | E4 F4 G4 D4- | D4 F6 ED E4 | F4 A4 c4 A4 | G8 z4 G4 | %13
w: |* * * ser|Gott ein|gu- te Wehr und|_ Waf- * * *|fen, ein gu- te|Wehr ein|
 F8 E4 F4- | F4 E4 F2 G2 A2 B2 | c8 G8 | z4 c8 B4- | B4 A4 G8 | A4 F8 E4 | D8 C3 B, A,4 | %20
w: gu- te Wehr|_ und Waf- * * *|* fen,|ein gu-|* te Wehr|und Waf- *|* * * fen,|
 z4 c4 B8 | A12 G4- | G4 A2 F4 ED E4 | F8 z4 c4 | c4 c4 G4 A4 | =B4 c8 _B4 | A4 A4 G4 F4 | %27
w: ein gu-|te Wehr|_ und Waf- * * *|fen. Er|hilfft uns frey _|auß al- *|* ler Noth, Er|
 A4 c4 F8- | F4 C4 C2 D2 E2 F2 | G2 E2 A6 A2 G4- | G4 F4 E2 C2 F4- | F4 E4 F4 A4 | %32
w: hilfft uns frey|_ Er hilfft _ _ _|_ _ _ uns frey|_ auß al- * *|* ler Noth, die|
 G2 FE F2 D2 G2 E2 A4- | A4 G4 A4 c4 | B2 A2 G2 F2 E4 F4 | z16 | z4 c4 B4 A4 | G6 A2 F6 ED | %38
w: uns _ _ _ _ _ _ _|_ jetzt hat be-|trof- * * * * fen,||die uns jetzt|hat be- trof- * *|
 E2 C2 D8 C4 | D8 z8 | z16 | z8 z4 D4 | E6 F2 G8- | G4 A8 G4- | G4 ^F4 G8 | z4 A4 G4 G4 | %46
w: |fen.||Der|al- * *|* te bö-|* se Feind,|Der al- te|
 E4 A4 F8 | z4 C4 F8 | G8 A8 | B4 G4 c4 A4- | A4 G4 A2 G2 F2 E2 | D4 A4 B8 | A8 G8 | F4 A6 GF G4 | %54
w: bö- se Feind,|mit Ernst|ers jetzt|meint, mit Ernst ers|_ jetzt meint. _ _ _|_ Groß Macht|und vil|List, Groß _ _ _|
 A6 G2 A2 B2 c4- | c2 =BA B4 c4 A4- | A2 GF G4 A8 | B4 B8 A4 | B6 A2 G4 G4 | D8 z8 | z8 A4 A4- | %61
w: Macht _ _ _ _|_ _ _ _ und vil|_ _ _ _ List,|sein grau- sam|Rü- * * stung|ist,|sein grau-|
 A4 G4 A6 G2 | F4 F4 E4 A4- | A4 A8 G4 | A6 G2 F2 G2 A4- | A4 G4 A4 F4 | F4 E4 F6 E2 | %67
w: * sam Rü- *|* stung ist, sein|_ grau- sam|Rü- * * * *|* stung ist, sein|grau- sam Rü- *|
 D4 D4 C4 D4 | A12 A4 | A4 G2 F2 E4 F4 | D8 D4 D4 | B,8 C4 c4 | B8 A8 | G8 A4 F4- | F4 E4 D8 | %75
w: * stung ist. Auf|Erd ist|nicht _ _ _ seins|Glei- chen, seins|Glei- chen, Auf|Erd ist|nicht seins Glei-||
 C4 c4 B4 A4- | A4 G2 A2 F4 F4- | F4 F4 F4 D4 | C16 | A,16 |] %80
w: chen, Auf Erd ist|_ nicht seins Glei- chen,|_ ist nicht seins|Glei-|chen.|
V:3
 z16 | z16 | z16 | z16 | z4 f4 f4 f4 | c6 d2 e4 f4- | f4 e4 d4 d4 | c8 z8 | z4 f4 e4 d4 | %9
w: ||||Ein ve- ste|Burg _ ist un-|* * * ser|Gott|ein gu- te|
 c8 d4 B4- | B4 A4 G8 | F8 z4 f4 | _e4 d8 c4 | d4 B8 A4 | G8 F4 f4- | f4 e8 d4 | c4 c4 d4 c2 B2 | %17
w: Wehr und Waf-||fen, ein|gu- te Wehr|und Waf- *|* fen, ein|_ gu- te|Wehr ein gu- * *|
 c4 A4 =B4 c4 | F2 G2 A6 B2 c4- | c2 =BA B4 c4 d4 | c2 d2 e2 c2 f2 d2 g4 | e4 f8 d4 | c8 c8 | %23
w: * te Wehr und|Waf- * * * *|* * * * fen, ein|gu- * * * * * *|te Wehr und|Waf- fen.|
 z4 f4 f4 f4 | c6 d2 e4 f4- | f4 e4 d4 d4 | A4 f4 e4 d4 | c8 d4 B4- | B4 A4 G8- | G4 F4 z4 G4 | %30
w: Er hilfft uns|frey _ auß al-|* * * ler|Noth, die uns jetzt|hat be- trof-||* fen, die|
 A4 B4 c8- | c4 c4 d2 B2 c2 d2- | d2 c4 =B2 c4 e4 | f4 d4 e8 | z4 d4 c4 B2 A2 | B2 G2 c8 =B4 | %36
w: uns jetzt hat|_ die uns jetzt hat be-|* trof- * fen, die|uns jetzt hat|be- trof- * *||
 c8 z4 f4- | f4 e8 d4 | c4 d4 B2 G2 c4 | F8 z4 F4 | A4 B4 c8- | c4 d4 c4 =B4 | c4 c4 e4 d4 | %43
w: fen, die|_ uns jetzt|hat be- trof- * *|fen. Der|al- * *|* te bö- se|Feind, Der al- te|
 e4 f4 e8 | z4 c4 d4 e4 | f6 e2 d4 G4 | c8 d8 | e8 f8 | z4 c8 d4- | d4 e8 f4 | d8 c4 d4- | %51
w: bö- se Feind,|Der al- te|bö- se Feind, mit|Ernst ers|jetzt meint,|mit Ernst|_ ers jetzt|meint. Groß Macht|
 d4 c4 B8 | c8 z8 | z16 | z4 e4 f4 e4 | d8 c4 c4 | f4 e2 d2 e4 f4 | B2 c2 d2 e2 f8 | B4 G4 d8 | %59
w: _ und vil|List,||Groß Macht und|vil List, Groß|Macht und _ _ vil|List, _ _ _ _|und vil List,|
 z8 d4 d4- | d4 c4 d6 c2 | B4 B4 A8 | B4 d4 A4 e4 | f6 e2 d4 d4 | e4 A4 B4 c4 | d4 e4 f6 g2 | %66
w: sein grau-|* sam Rü- *|* stung ist,|Rü- stung ist, sein|grau- sam Rü- stung|ist, sein grau- sam|Rü- stung ist, _|
 a4 A4 F2 G2 A4- | A4 G4 A8- | A4 f8 e4- | e4 d4 c4 d4 | B12 A4 | G8 F4 z2 c2 | d4 e4 f2 e2 d2 c2 | %73
w: _ sein grau- sam Rü-|* stung ist.|_ Auf Erd|_ ist nicht seins|Glei- *|* chen, Auf|Erd ist nicht _ _ _|
 B4 G4 F6 G2 | A2 G2 c6 =BA B4 | c8 z4 f4 | e8 d8 | c8 d4 B4- | B4 A4 G8 | F16 |] %80
w: _ seins Glei- *||chen, Auf|Erd ist|nicht seins Glei-||chen.|
V:4
 z16 | z16 | z16 | z16 | z16 | z16 | z16 | C8 C4 C4 | F,6 G,2 A,4 B,4- | B,4 A,4 G,4 G,4 | %10
w: |||||||Ein ve- ste|Burg _ ist un-|* * * ser|
 F,8 z4 B,4 | A,6 G,2 F,8 | G,8 _E,8 | D,8 C,8- | C,8 F,8 | z4 C8 B,4- | B,4 A,4 G,8 | %17
w: Gott ein|gu- te Wehr|und Waf-||* fen,|ein gu-|* te Wehr|
 A,4 F,8 E,4 | D,8 C,8 | z8 z4 D,4 | A,2 B,2 C2 A,2 B,4 G,4 | A,2 G,2 F,2 E,2 D,4 G,4 | %22
w: und Waf- *|* fen,|ein|gu- * * * * te|Wehr _ _ _ _ und|
 E,4 F,4 C,8 | F,16 | z16 | z16 | z16 | z8 F,8 | F,4 F,4 C,6 D,2 | E,4 F,8 E,4 | D,4 D,4 C,8- | %31
w: Waf- * *|fen.||||Er|hilfft uns frey _|auß al- *|* ler Noth,|
 C,8 z4 F,4 | E,4 D,4 C,4 C4 | B,8 A,8 | G,8 A,4 F,4- | F,4 E,4 D,8 | C,8 z8 | z16 | z16 | %39
w: _ die|uns jetzt hat die|uns jetzt|hat be- trof-||fen.|||
 z4 B,,4 D,6 E,2 | F,4 G,4 F,4 E,4 | F,8 z4 G,4 | C4 A,4 G,4 G,4 | C,4 F,4 C6 B,2 | %44
w: Der al- *|* te bö- se|Feind, Der|al- te bö- se|Feind, Der al- te|
 A,4 A,4 G,4 C,4 | F,8 G,8 | A,8 B,4 D4 | A,4 C4 B,2 C2 D4 | C4 C,4 F,8 | G,8 A,8 | B,8 A,4 B,4- | %51
w: bö- se Feind, mit|Ernst ers|jetzt meint, mit|Ernst ers jetzt _ _|meint, mit Ernst|ers jetzt|meint. Groß Macht|
 B,4 A,4 G,8 | F,2 G,2 A,2 B,2 C4 C4 | D4 C4 B,8 | A,16 | z8 z4 A,4 | B,8 A,8 | G,8 F,8 | %58
w: _ und vil|List, _ _ _ _ Groß|Macht und vil|List,|Groß|Macht und|vil List,|
 z8 G,4 G,4- | G,4 F,4 G,6 F,2 | _E,4 E,4 D,8 | z16 | D4 D8 C4 | D6 C2 B,4 B,4 | A,8 z8 | %65
w: sein grau-|* sam Rü- *|* stung ist,||sein grau- sam|Rü- * * stung|ist,|
 z8 D,4 D,4- | D,4 C,4 D,6 C,2 | B,,4 B,,4 A,,4 D,4 | ^C,4 D,4 A,6 G,2 | ^F,4 G,4 A,4 =F,4 | %70
w: sein grau-|* sam Rü- *|* stung ist. Auf|Erd ist nicht _|_ ist nicht seins|
 G,8 D,8 | z4 B,4 A,8 | G,8 F,8 | G,4 _E,8 D,4 | C,8 F,4 D,4 | A,4 A,4 B,4 D4 | %76
w: Glei- chen,|Auf Erd|ist nicht|seins Glei- *|* chen, Auf|Erd ist nicht seins|
 A,2 B,2 C2 A,2 B,2 B,,2 D,2 E,2 | F,8 B,,8 | C,16 | F,16 |] %80
w: Glei- * * * * * * *|||chen.|

